src/images/svg/symbols/marketbear.svg

<svg xmlns="http://www.w3.org/2000/svg" width="32" height="32"><g fill="none" transform="translate(6 6)"><circle cx="10" cy="10" r="10" fill="#FF444F"/><path fill="#FFF" d="M15.229 6.957l-.129-.094.679-.614.3-1.099L15.1 4l-1.35.188-.957.998-.243-.181L10 4.889l-2.55.116-.243.181-.957-.998L4.9 4l-.979 1.15.3 1.099.679.614-.129.094-1.2 4.056 1.7 2.726L10 17l4.729-3.261 1.7-2.726z"/></g></svg>

<svg xmlns="http://www.w3.org/2000/svg" width="32" height="32" viewBox="0 0 32 32">
    <g fill="none" transform="translate(6 6)">
        <circle cx="10" cy="10" r="10" fill="#FF444F"/>
        <path fill="#FFF" d="M15.229 6.957L15.1 6.863 15.779 6.249 16.079 5.15 15.1 4 13.75 4.188 12.793 5.186 12.55 5.005 10 4.889 7.45 5.005 7.207 5.186 6.25 4.188 4.9 4 3.921 5.15 4.221 6.249 4.9 6.863 4.771 6.957 3.571 11.013 5.271 13.739 10 17 14.729 13.739 16.429 11.013z"/>
    </g>
</svg>
